X: 130694
T: McDonagh's #1
S: "Play 50 Reels" (Armagh Pipers' Club)
Z: B.Black
L: 1/8
M: 4/4
R: reel
K: D
defd A3 d |(3Bcd ef gfef | defd A3 B | cAGE ED D2 :|
Adfd adfd |Acec gcec | d2 fd adfd | efge fd d2 |
Adfd adfd |cdef g2 fe | defg a3 f | gfeg fd d2 ||
